!!!COM: Bach, Johann Sebastian
!!!OTL@@DE: 281. Wo soll ich fliehen hin
!!!OTL@EN: Whither am I to flee?
!!!SCA: BWV 89.6
**harm	**root	**kern	**kern	**kern	**kern
*staff2	*	*staff2	*staff2	*staff1	*staff1
*Iorgan	*Iorgan	*Iorgan	*Iorgan	*Iorgan	*Iorgan
!	!	!bass	!tenor	!alto	!sprno
*	*	*clefF4	*clefF4	*clefG2	*clefG2
*k[b-e-]	*k[b-e-]	*k[b-e-]	*k[b-e-]	*k[b-e-]	*k[b-e-]
*g:	*g:	*g:	*g:	*g:	*g:
*met(C)	*met(C)	*met(C)	*met(C)	*met(C)	*met(C)
*M4/4	*M4/4	*M4/4	*M4/4	*M4/4	*M4/4
*MM60	*MM60	*MM60	*MM60	*MM60	*MM60
i	4GG	4GG\	4B-/	4d\	4g/
=1	=1	=1	=1	=1	=1
i	4GG	4G\	4B-/	4d\	4g/
V	4DD	4F#\	4A/	4d\	4a/
i	4GG	4G\	8G/L	4d\	4b-/
.	.	.	8B-/J	.	.
ivb	4CC	4E-\	4e-/	4g\	4cc/
=2	=2	=2	=2	=2	=2
V;	2.DD;	2.D;\	2.A;/	2.f#;\	2.dd;/
V7c	4DD	4C\	4A/	4f#\	4dd/
=3	=3	=3	=3	=3	=3
ib	4GG	4BB-\	4B-/	4g\	4dd/
viiob	4FF#	4AA\	4c/	8g\L	4cc/
.	.	.	.	8f#\J	.
i	4GG	4GG\	4d/	4g\	4b-/
iiob	4AA	4C\	4e-/	4a\	4cc/
=4	=4	=4	=4	=4	=4
V;	2.DD;	2.D;\	2.d;/	2.f;\	2.a#;/
*B-:	*B-:	*B-:	*B-:	*B-:	*B-:
V/VI	4DD	4D\	4d/	4f\	4a#/
=5	=5	=5	=5	=5	=5
vi	4GG	4G\	4d/	4g\	4b-/
V	4FF	4F\	4f/	4a\	4cc/
I	4BB-	8B-\L	4f/	4b-\	4dd/
.	.	8A\	.	.	.
vi	4GG	8G\	4g/	4b-\	4dd/
.	.	8F\J	.	.	.
=6	=6	=6	=6	=6	=6
iv7b	4EE-	4E-\	4g/	4b-\	2cc/
V	4FF	4F\	4f/	4a\	.
I;	4BB-;	4BB-;\	4f;/	4b-;\	4dd;/
Vb/VI	4DD	4F#\	4d/	4a\	4dd/
=7	=7	=7	=7	=7	=7
!!linebreak: 2
vi	4GG	(4G\	4d/	4g\	4b-/
V	4FF	8F\L	4f/	8a\L	4cc/
.	.	8E-\J)	.	8g\J	.
Ib	4BB-	8D\L	4B-/	4f\	4dd/
.	.	8C\	.	.	.
I	4BB-	8BB-\	4B-/	4f\	4dd/
.	.	8D\J	.	.	.
=8	=8	=8	=8	=8	=8
ii7	4CC	8E-\L	4B-/	4g\	2cc/
.	.	8C\J	.	.	.
V	4FF	4F\	4A/	4f\	.
I;	4BB-;	4BB-;\	4d;/	4f;\	4b-;/
I	4BB-	4B-\	4f/	4b-\	4dd/
=9	=9	=9	=9	=9	=9
Vb	4FF	4A\	4f/	4cc\	4ff/
I	4BB-	4B-\	8f/L	4b-\	4dd/
.	.	.	8g/J	.	.
Vb/VI	4DD	4F#\	8a/L	4a\	4dd/
.	.	.	8A/J	.	.
vi	4GG	4G\	4B-/	4g\	4dd/
=10	=10	=10	=10	=10	=10
V7b/V	4CC	4En\	4B-/	4g\	2cc/
Vc	8FF	4C\	8A/L	8f\L	.
V/V	8CC	.	8G/J	8en\J	.
V;	4FF;	4F;\	4A;/	4f;\	4cc;/
*g:	*g:	*g:	*g:	*g:	*g:
ivb	4CC	4E-\	4G/	4g\	4cc/
=11	=11	=11	=11	=11	=11
V	4DD	8D\L	4A/	4f#\	4dd/
.	.	8C\J	.	.	.
V7c	4DD	8BB-\L	4d/	4f#\	4cc/
.	.	8AA\J	.	.	.
i	4GG	8GG\L	4d/	4g\	4b-/
.	.	8F\J	.	.	.
ivb	8CC	8E-\L	8c/L	4g\	8cc/L
ic	8GG	8D\J	8d/J	.	8b-/J
=12	=12	=12	=12	=12	=12
iio7	4AA	4C\	4e-/	4g\	2a/
V7	4DD	4D\	8d/L	4f#\	.
.	.	.	8c/J	.	.
I;	4GG;	4GG;\	4Bn;/	4d;\	4g;/
==	==	==	==	==	==
*-	*-	*-	*-	*-	*-
!!!ENC: Craig Stuart Sapp
!!!END: 2004/12/06/
!!chor2scor: -l 2 -s 0.6 -o %b.pmx
